img/star.svg

<svg width="16" height="16" viewBox="0 0 16 16" fill="none" xmlns="http://www.w3.org/2000/svg">
<path d="M15.977 6.16426C15.9219 5.99454 15.7753 5.87085 15.5987 5.84523L10.6386 5.12445L8.42034 0.629872C8.34141 0.469872 8.17844 0.368591 8.00003 0.368591C7.8216 0.368591 7.65866 0.469872 7.57969 0.629872L5.36132 5.12445L0.401338 5.84523C0.224808 5.87085 0.0780894 5.99454 0.0229646 6.16423C-0.0321915 6.33394 0.0138083 6.52022 0.141589 6.64475L3.73058 10.1433L2.88346 15.0834C2.85327 15.2593 2.92558 15.4369 3.06992 15.5418C3.15158 15.6012 3.2483 15.6313 3.34548 15.6313C3.42011 15.6313 3.49498 15.6136 3.56355 15.5775L8 13.2451L12.4363 15.5775C12.5942 15.6605 12.7856 15.6467 12.9299 15.5418C13.0743 15.4369 13.1466 15.2592 13.1165 15.0833L12.269 10.1433L15.8584 6.64472C15.9862 6.52022 16.0322 6.33394 15.977 6.16426Z" fill="black"/>
</svg>

<svg width="16" height="16" fill="none" xmlns="http://www.w3.org/2000/svg"><path d="M15.977 6.164a.468.468 0 00-.378-.319l-4.96-.72L8.42.63a.469.469 0 00-.84 0L5.36 5.124l-4.96.721a.469.469 0 00-.26.8l3.59 3.498-.848 4.94a.469.469 0 00.68.495L8 13.245l4.436 2.333a.469.469 0 00.68-.495l-.847-4.94 3.59-3.498a.468.468 0 00.118-.48z" fill="#000"/></svg>
